!!!OTL: Songlang
!!!ARE: Asia, China,ÿHunan Youxian
!! I, 529
!!!SCT: C2192
!!!YEM: Copyright 1995, estate of Helmut Schaffrath.
**kern
*ICvox
*Ivox
*M2/4
*k[b-e-a-d-]
*A-:
{8cc
8a-
8.b-
16cc
=1
8ee-
8ff
4ee-
=2
8cc
8b-
8a-
8f
=3
8ee-
8cc
4b-}
=4
{8cc
8a-
8.b-
16cc
=5
8a-
16b-
16a-
4f
=6
8.a-
16cc
8b-
8e-
=7
8g
8f
4e-}
=8
{8cc
8a-
8.b-
16cc
=9
8ee-
8ff
4ee-
=10
8.cc
16b-
8a-
8f
=11
8ee-
8cc
4b-}
=12
{8cc
8a-
8.b-
16cc
=13
8a-
16b-
16a-
4f
=14
8.a-
16cc
8b-
8e-
=15
8g
8f
4e-}
==
!!!AGN: Xiaodiao
!!!ONB: ESAC (Essen Associative Code) Database: SENGANSU
!!!AMT: simple duple
!!!AIN: vox
!!!EED: Helmut Schaffrath
!!!EEV: 1.0
*-
